!!!!SEGMENT: pl-cz--iii-332--001-006_just-franciszek-kasper--dixit-dominus-tu-es-sacerdos.krn
!!!cenid: 17xx:911
!!!COM: Just, Franciszek Kasper
!!!COM-rismID: pe30098311
!!!CDT: 1717-1760
!!!CNT: Czech
!!!OPR: Dixit Dominus
!!!OTL: Tu es sacerdos
!!!OMV: 006
!!!PDT:
!!!AGN: Sacred
!!!YEC: Copyright 2022 Narodowy Instytut Fryderyka Chopina (https://polishscores.org)
!!!YEM: License CC-BY-4.0 (https://creativecommons.org/licenses/by/4.0)
!!!SMS-siglum: PL-CZ
!!!SMS-shelfmark: III-332
!!!SMS-shelfwork: 001-006 M
!!!SMS-variant:
!!!SMS-altvar:
!!!NIFC-rismSourceID: 300000542
!!!NIFC-rismChildID: 300000542
!!!NIFC-islandoraID: pl-cz:37699
!!!URL-pdf-islandora: https://repozytorium.nifc.pl/islandora/object/pl-cz%3A37699/datastream/PDF/view
!!!URL-scan: https://polish.musicsources.pl/pl/lokalizacje/galeria/rekopisy/6905/1 @EN{Scan on Polish Music Sources Website} @PL{Skany w portalu Dziedzictwo Muzyki Polskiej w otwartym dostępie}
!!!IIIF:
!!!ONB-nifc: UWAGA: części Dixit Dominus: Dixit Dominus, Virgam virtutis tuae, Dominare in medio, Tecum principium, Juravit Dominus, Tu es sacerdos, Dominus a dextris, Judicabit in nationibus, De torrente, Gloria patri
!!!AIN: 1 alto 2 bass 2 clrno 1 oboe 1 soprn 1 tenor 2 violn
!!!key: D
**kern	**fba	**kern	**kern	**kern	**kern	**text	**kern	**text	**kern	**text	**kern	**text	**kern	**kern	**kern
*	*	*group3	*group3	*group2	*group2	*	*group2	*	*group2	*	*group2	*	*group1	*group1	*
*part11	*part11	*part10	*part9	*part8	*part7	*part7	*part6	*part6	*part5	*part5	*part4	*part4	*part3	*part2	*part1
*staff11	*	*staff10	*staff9	*staff8	*staff7	*staff7	*staff6	*staff6	*staff5	*staff5	*staff4	*staff4	*staff3	*staff2	*staff1
*I"Fundamento.	*	*I"Violino Secundo.	*I"Violino Primo.	*I"Baſso Secundo.	*I"Baſso.	*	*I"Tenore	*	*I"Alto.	*	*I"Canto.	*	*I"Clarino 2do.	*I"Clarino Primo ex D.	*I"Oboa Solo.
*mI"Basso continuo	*	*mI"Violino II	*mI"Violino I	*mI"Basso II	*mI"Basso	*	*	*	*mI"Alto	*	*mI"Soprano	*	*mI"Clarino II in D	*mI"Clarino I in D	*mI"Oboe Solo
*I'bc	*	*I'vl 2	*I'vl 1	*I'B 2	*I'B	*	*I'T	*	*I'A	*	*I'S	*	*I'clno 2	*I'clno 1	*I'ob
*	*	*Ivioln	*Ivioln	*Ibass	*Ibass	*	*Itenor	*	*Ialto	*	*Isoprn	*	*Iclrno	*Iclrno	*Ioboe
*ICklav	*	*ICstr	*ICstr	*ICvox	*ICvox	*	*ICvox	*	*ICvox	*	*ICvox	*	*ICbras	*ICbras	*ICww
*IGcont	*	*	*	*	*IGcoro	*	*IGcoro	*	*IGcoro	*	*IGcoro	*	*	*	*
!	!	!	!	!LO:MO:mod=*tacet	!	!	!	!	!	!	!	!	!	!	!LO:MO:mod=*tacet
*	*	*	*	*null	*	*	*	*	*	*	*	*	*	*	*null
*clefF4	*	*clefG2	*clefG2	*clefF4	*clefF4	*	*clefC4	*	*clefC3	*	*clefC1	*	*clefG2	*clefG2	*clefG2
*	*	*	*	*	*	*	*mclefGv2	*	*mclefG2	*	*mclefG2	*	*	*	*
*	*	*	*	*	*	*	*	*	*	*	*	*	*ITrd-1c-2	*ITrd-1c-2	*
*k[f#c#]	*	*k[f#c#]	*k[f#c#]	*k[f#c#]	*k[f#c#]	*	*k[c#f#]	*	*k[f#c#]	*	*k[f#c#]	*	*k[f#c#]	*k[f#c#]	*k[f#c#]
*D:	*	*D:	*D:	*D:	*D:	*	*D:	*	*D:	*	*D:	*	*	*	*D:
*M2/2	*	*M2/2	*M2/2	*M2/2	*M2/2	*	*M2/2	*	*M2/2	*	*M2/2	*	*M2/2	*M2/2	*M2/2
*met(c|)	*	*met(c|)	*met(c|)	*met(c|)	*met(c|)	*	*met(c|)	*	*met(c|)	*	*met(c|)	*	*met(c|)	*met(c|)	*met(c|)
*mmet(c|)	*	*mmet(c|)	*mmet(c|)	*mmet(c|)	*mmet(c|)	*	*mmet(c|)	*	*mmet(c|)	*	*mmet(c|)	*	*mmet(c|)	*mmet(c|)	*mmet(c|)
=1	=1	=1	=1	=1	=1	=1	=1	=1	=1	=1	=1	=1	=1	=1	=1
*^	*	*	*	*	*	*	*	*	*	*	*	*	*	*	*
*2\right	*	*	*2\right	*2\right	*	*2\right	*	*2\right	*	*2\right	*	*2\right	*	*2\right	*2\right	*
!LO:TX:a:i:rj:mod= :t=Allabr.	!	!	!LO:TX:a:i:mod= :t=Allabr. a Capella	!LO:TX:a:i:rj:mod= :t=Allabr.	!LO:TX:t=P:problem=partia tylko w części "Dominus a dextris"	!LO:TX:a:i:mod= :t=Allabr.	!LO:SIC:o=um	!LO:TX:a:i:mod= :t=Allabr.	!LO:SIC:o=um	!LO:TX:a:i:rj:mod= :t=Allabr.	!LO:SIC:o=um	!LO:TX:a:i:rj:mod= :t=Allabr	!LO:SIC:o=um.	!LO:TX:a:i:mod= :t=Allabr.	!	!LO:TX:t=P:problem=partia tylko w części "Dominus a dextris"
2D\	2AA\yy	.	2ff#\	2ddd\	1ryy	2D\	-um.	2d\	-um.	2a,\	-um.	2ff#,\	-um.	2ff#\	2aa\	1ryy
!LO:MO:mod=*clefG2	!	!	!	!	!	!	!	!	!	!	!	!	!	!	!	!
*clefC1	*	*	*	*	*	*	*	*	*	*	*	*	*	*	*	*
!	!	!	!	!	!	!LO:TX:a:i:mod= :t=à Capella	!	!	!	!LO:TX:a:i:mod= :t=à capella	!	!	!	!	!	!
[<2dd/	2d\	.	2d/	2dd\	.	2r	.	2r	.	2d\	Tu	2dd\	Tu	2r	2r	.
=2	=2	=2	=2	=2	=2	=2	=2	=2	=2	=2	=2	=2	=2	=2	=2	=2
!	!	!	!	!	!	!LO:TX:b:mod= :t=11.	!	!	!	!	!	!	!	!	!	!
2dd/]	2e\	.	2e/	2dd\	1ryy	00r	.	00r	.	2e\	es	2dd\	es	00r	00r	1ryy
!	!	!	!	!	!	!	!	!	!	!	!LO:SIC:o=Sa-	!	!LO:SIC:o=Sa-	!	!	!
2cc#/	2f#\	.	2f#/	2cc#\	.	.	.	.	.	2f#\	sa-	2cc#\	sa-	.	.	.
=3	=3	=3	=3	=3	=3	=3	=3	=3	=3	=3	=3	=3	=3	=3	=3	=3
2b/	2g\	.	2g/	2b\	1ryy	.	.	.	.	2g\	-cer-	2b\	-cer-	.	.	1ryy
[<2ee/	2e\	.	2e/	2ee\	.	.	.	.	.	2e\	-dos	2ee\	-dos	.	.	.
=4	=4	=4	=4	=4	=4	=4	=4	=4	=4	=4	=4	=4	=4	=4	=4	=4
2ee/]	2f#\	.	2f#/	2ee\	1ryy	.	.	.	.	2f#\	in	2ee\	in	.	.	1ryy
2dd/	2g\	.	2g/	2dd\	.	.	.	.	.	2g\	ae-	2dd\	ae-	.	.	.
=5	=5	=5	=5	=5	=5	=5	=5	=5	=5	=5	=5	=5	=5	=5	=5	=5
2cc#/	2a\	.	2a/	2cc#\	1ryy	.	.	.	.	2a\	-ter-	2cc#\	-ter-	.	.	1ryy
[<2ff#/	2f#\	.	2f#/	2ff#\	.	.	.	.	.	2f#\	.	[<2ff#\	.	.	.	.
=6	=6	=6	=6	=6	=6	=6	=6	=6	=6	=6	=6	=6	=6	=6	=6	=6
2ff#/]	1g	.	1g	2ff#\	1ryy	00r	.	0r	.	1g	.	2ff#\]	.	00r	00r	1ryy
4ee/	.	.	.	4ee\	.	.	.	.	.	.	.	4ee\	.	.	.	.
!	!	!	!	!	!	!	!	!	!	!	!	!LO:TX:b:i:mod= :t=Verte cito.	!	!	!	!
4dd/	.	.	.	4dd\	.	.	.	.	.	.	.	4dd\	.	.	.	.
!LO:LB:g=original	!LO:LB:g=original	!	!	!	!	!	!	!	!	!	!	!LO:PB:g=original	!	!	!	!
=7	=7	=7	=7	=7	=7	=7	=7	=7	=7	=7	=7	=7	=7	=7	=7	=7
2cc#/	2a\	.	2a/	2cc#\	1ryy	.	.	.	.	2a\	.	2cc#\	.	.	.	1ryy
2dd/	2f#\	.	2f#/	2dd\	.	.	.	.	.	2f#\	.	2dd\	.	.	.	.
=8	=8	=8	=8	=8	=8	=8	=8	=8	=8	=8	=8	=8	=8	=8	=8	=8
2dd/	1e	.	1e	2dd\	1ryy	.	.	1r	.	1e	.	2dd\	.	.	.	1ryy
2cc#/	.	.	.	2cc#\	.	.	.	.	.	.	.	2cc#\	.	.	.	.
!	!	!	!	!	!	!	!	!	!	!LO:LB:g=original	!	!	!	!	!	!
=9	=9	=9	=9	=9	=9	=9	=9	=9	=9	=9	=9	=9	=9	=9	=9	=9
*	*2\left	*	*	*	*	*	*	*	*	*	*	*	*	*	*	*
2dd/	2dd\	.	2d/	2dd\	1ryy	.	.	2r	.	2d\	-num	2dd,\	-num	.	.	1ryy
!LO:MO:mod=*clefF4	!	!	!	!	!	!	!	!	!	!	!	!	!	!	!	!
*clefC4	*2\right	*	*	*	*	*	*	*	*	*	*	*	*	*	*	*
2d\	2ryyyy	.	2r	2ff#\	.	.	.	2d\	Tu	2r	.	2ff#\	tu	.	.	.
*v	*v	*	*	*	*	*	*	*	*	*	*	*	*	*	*	*
=10	=10	=10	=10	=10	=10	=10	=10	=10	=10	=10	=10	=10	=10	=10	=10
2d\	.	2r	2ff#\	1ryy	0r	.	2d\	es	2r	.	2ff#\	es	00r	00r	1ryy
!	!	!	!	!	!	!	!	!LO:SIC:o=Sa-	!	!LO:SIC:o=Sa-	!	!LO:SIC:o=Sa-	!	!	!
2c#\	6	2a/	2ee\	.	.	.	2c#\	sa-	2a\	sa-	2ee\	sa-	.	.	.
=11	=11	=11	=11	=11	=11	=11	=11	=11	=11	=11	=11	=11	=11	=11	=11
!	!	!	!	!	!	!	!	!	!LO:SIC:v:o=2e\	!	!	!	!	!	!
2B\	5	2d/	2dd\	1ryy	.	.	2B\	-cer-	2f#	-cer-	2dd\	-cer-	.	.	1ryy
2e\	.	2r	2gg\	.	.	.	2e\	-dos	2e\	-dos	2gg,\	-dos	.	.	.
=12	=12	=12	=12	=12	=12	=12	=12	=12	=12	=12	=12	=12	=12	=12	=12
2e\	.	2r	2gg\	1ryy	1r	.	2e\	in	2r	.	2gg\	in	.	.	1ryy
2d\	.	2b\	2ff#\	.	.	.	2d\	ae-	2b\	ae-	2ff#\	ae-	.	.	.
=13	=13	=13	=13	=13	=13	=13	=13	=13	=13	=13	=13	=13	=13	=13	=13
2c#\	6	2a/	2ee\	1ryy	2r	.	2c#\	-ter-	2e\	-ter-	2ee\	-ter-	.	.	1ryy
!LO:MO:null:mod=*null	!	!	!	!	!	!	!	!	!	!	!	!	!	!	!
*clefF4	*	*	*	*	*	*	*	*	*	*	*	*	*	*	*
2A\	.	2cc#\	2cc#\	.	2A\	Tu	2e\	.	2c#\	.	2cc#\	.	.	.	.
!	!	!	!	!	!	!	!LO:LB:g=original	!	!	!	!	!	!	!	!
=14	=14	=14	=14	=14	=14	=14	=14	=14	=14	=14	=14	=14	=14	=14	=14
2B\	.	2dd\	2dd\	1ryy	2B\	es	2d\	.	2d\	.	2dd\	.	00r	00r	1ryy
!	!	!	!	!	!	!LO:SIC:o=Sa-	!	!	!	!	!	!	!	!	!
2c#\	.	2ee\	2ee\	.	2c#\	sa-	2A\	.	2e\	.	2ee\	.	.	.	.
=15	=15	=15	=15	=15	=15	=15	=15	=15	=15	=15	=15	=15	=15	=15	=15
!	!	!	!	!	!	!	!	!	!	!	!	!LO:SIC:o=-nu(m)	!	!	!
2d\	.	2a/	2ff#\	1ryy	2d\	-cer-	2A\	-num	2f#,\	-num	2ff#,\	-num	.	.	1ryy
2D/	.	2dd\	2ff#\	.	2D/	-dos	2d\	tu	2a\	tu	2ff#\	tu	.	.	.
!LO:LB:g=original	!	!LO:LB:g=original	!LO:LB:g=original	!	!	!	!	!	!	!	!	!	!	!	!
=16	=16	=16	=16	=16	=16	=16	=16	=16	=16	=16	=16	=16	=16	=16	=16
2E\	7	2dd\	2gg\	1ryy	2E\	in	2d\	es	2a\	es	2dd\	es	.	.	1ryy
!	!	!	!	!	!	!	!	!LO:SIC:o=Sa-	!	!LO:SIC:o=Sa-	!	!LO:SIC:o=Sa-	!	!	!
2F#\	6	2a/	2aa\	.	2F#\	ae-	2A\	sa-	2f#\	sa-	2dd\	sa-	.	.	.
*	*	*	*	*	*custos:G	*	*	*	*	*	*	*	*	*	*
!	!	!	!	!	!LO:LB:g=original	!	!	!	!	!	!	!	!	!	!
=17	=17	=17	=17	=17	=17	=17	=17	=17	=17	=17	=17	=17	=17	=17	=17
2G\	.	2dd\	2dd\	1ryy	2G\	-ter-	2B\	-cer-	2e\	-cer-	2dd\	-cer-	.	.	1ryy
2E\	.	2ee\	2gg\	.	2E\	.	2d\	-dos	2b\	-dos	2dd\	-dos	.	.	.
=18	=18	=18	=18	=18	=18	=18	=18	=18	=18	=18	=18	=18	=18	=18	=18
2F#\	7	2ee\	2aa\	1ryy	2F#\	.	2e\	in	2b\	in	2ee\	in	00r	00r	1ryy
2G\	6 5	2dd\	2bb\	.	2G\	.	2e\	ae-	2b\	ae-	2ee\	ae-	.	.	.
=19	=19	=19	=19	=19	=19	=19	=19	=19	=19	=19	=19	=19	=19	=19	=19
2A\	.	2cc#\	2ee\	1ryy	2A\	.	2c#\	-ter-	2e\	-ter-	2ee\	-ter-	.	.	1ryy
2A\	.	2cc#\	2ee\	.	2A\	-num	2c#\	-num	2e\	-num	2ee\	-num	.	.	.
*	*	*	*	*	*	*	*	*	*	*	*custos:dd	*	*	*	*
!	!	!	!	!	!	!	!	!	!	!	!LO:LB:g=original	!	!	!	!
=20	=20	=20	=20	=20	=20	=20	=20	=20	=20	=20	=20	=20	=20	=20	=20
2B\	.	2b\	2dd\	1ryy	2B\	in	2f#\	in	2f#\	in	2dd\	in	.	.	1ryy
2c#\	6	2cc#\	2ee\	.	2c#\	ae-	2e\	ae-	2a\	ae-	2ee\	ae-	.	.	.
!	!	!	!	!	!	!	!	!	!LO:LB:g=original	!	!	!	!	!	!
=21	=21	=21	=21	=21	=21	=21	=21	=21	=21	=21	=21	=21	=21	=21	=21
1d	.	4dd\	4ff#\	1ryy	1d	-ter-	1d	-ter-	1a	-ter-	1ff#	-ter-	.	.	1ryy
.	.	8dd\L	8ff#\L	.	.	.	.	.	.	.	.	.	.	.	.
.	.	8ee\J	8gg\J	.	.	.	.	.	.	.	.	.	.	.	.
.	.	8ff#\L	8aa\L	.	.	.	.	.	.	.	.	.	.	.	.
.	.	8gg\	8bb\	.	.	.	.	.	.	.	.	.	.	.	.
.	.	8ff#\	8aa\	.	.	.	.	.	.	.	.	.	.	.	.
.	.	8gg\J	8bb\J	.	.	.	.	.	.	.	.	.	.	.	.
=22	=22	=22	=22	=22	=22	=22	=22	=22	=22	=22	=22	=22	=22	=22	=22
!	!	!	!	!	!	!	!	!LO:MO:null:mod=-[num]	!	!LO:MO:null:mod=-[num]	!	!LO:MO:null:mod=-[num]	!	!	!
1A	.	4ee\	4aa\	1ryy	1A	-num	1c#	.	1a	.	1ee	.	00r	00r	1ryy
.	.	8cc#\L	8cc#\L	.	.	.	.	.	.	.	.	.	.	.	.
.	.	8dd\J	8dd\J	.	.	.	.	.	.	.	.	.	.	.	.
.	.	8cc#\L	8ee\L	.	.	.	.	.	.	.	.	.	.	.	.
.	.	8dd\	8ff#\	.	.	.	.	.	.	.	.	.	.	.	.
.	.	8cc#\	8ee\	.	.	.	.	.	.	.	.	.	.	.	.
.	.	8ee\J	8gg\J	.	.	.	.	.	.	.	.	.	.	.	.
=23	=23	=23	=23	=23	=23	=23	=23	=23	=23	=23	=23	=23	=23	=23	=23
!	!	!	!	!	!	!	!	!LO:MO:null:mod=[in]	!	!LO:MO:null:mod=[in]	!	!LO:MO:null:mod=[in]	!	!	!
1B	5	4dd\	4ff#\	1ryy	1B	in	1B	.	1f#	.	1dd	.	.	.	1ryy
.	.	8b\L	8dd\L	.	.	.	.	.	.	.	.	.	.	.	.
.	.	8cc#\J	8ee\J	.	.	.	.	.	.	.	.	.	.	.	.
.	.	8dd\L	8ff#\L	.	.	.	.	.	.	.	.	.	.	.	.
.	.	8ee\	8gg\	.	.	.	.	.	.	.	.	.	.	.	.
.	.	8dd\	8ff#\	.	.	.	.	.	.	.	.	.	.	.	.
.	.	8ee\J	8gg\J	.	.	.	.	.	.	.	.	.	.	.	.
=24	=24	=24	=24	=24	=24	=24	=24	=24	=24	=24	=24	=24	=24	=24	=24
!	!	!	!	!	!	!	!	!LO:MO:null:mod=[ae]-	!	!LO:MO:null:mod=[ae]-	!	!LO:MO:null:mod=[ae]-	!	!	!
1F#	n	4dd\	4ff#\	1ryy	1F#	ae-	1A	.	1f#	.	1ccn	.	.	.	1ryy
.	.	8f#/L	8a/L	.	.	.	.	.	.	.	.	.	.	.	.
.	.	8g/J	8b/J	.	.	.	.	.	.	.	.	.	.	.	.
!	!	!	!LO:SIC:v:o=8cc#\L	!	!	!	!	!	!	!	!	!	!	!	!
.	5	8a/L	8ccL	.	.	.	.	.	.	.	.	.	.	.	.
.	.	8b/	8dd\	.	.	.	.	.	.	.	.	.	.	.	.
!	!	!	!LO:SIC:v:o=8cc#\	!	!	!	!	!	!	!	!	!	!	!	!
.	.	8a/	8cc	.	.	.	.	.	.	.	.	.	.	.	.
.	.	8g/J	8dd\J	.	.	.	.	.	.	.	.	.	.	.	.
=25	=25	=25	=25	=25	=25	=25	=25	=25	=25	=25	=25	=25	=25	=25	=25
!	!	!	!	!	!	!	!	!LO:MO:null:mod=-[ter]-	!	!LO:MO:null:mod=-[ter]-	!	!LO:MO:null:mod=-[ter]-	!	!	!
2G\	.	2b\	4b\	1ryy	2G\	-ter-	2B\	.	2g\	.	4b\	.	.	.	1ryy
.	.	.	4cc#\	.	.	.	.	.	.	.	4cc#X\	.	.	.	.
2D\	.	2a/	2dd\	.	2D\	.	2G/	.	2a\	.	[<2dd\	.	.	.	.
!	!	!	!	!	!	!	!LO:LB:g=original	!	!	!	!	!	!	!	!
=26	=26	=26	=26	=26	=26	=26	=26	=26	=26	=26	=26	=26	=26	=26	=26
2A\	4	1a	1ee	1ryy	2A\	.	1E	.	1a	.	2dd\]	.	00r	00r	1ryy
2AA/	#	.	.	.	2AA/	.	.	.	.	.	2cc#\	.	.	.	.
!LO:LB:g=original	!	!	!	!	!	!	!	!	!	!	!	!	!	!	!
=27	=27	=27	=27	=27	=27	=27	=27	=27	=27	=27	=27	=27	=27	=27	=27
!	!	!	!	!	!	!LO:SIC:o=-nu(m)	!	!	!	!	!	!	!	!	!
4D\	.	2a/	2ff#\	1ryy	4D/	-num	2F#/	-num	2a\	-num	2dd\	-num	.	.	1ryy
!	!	!	!	!	!	!LO:SIC:o=Se-	!	!	!	!	!	!	!	!	!
4A\	.	.	.	.	4A\	se-	.	.	.	.	.	.	.	.	.
!	!	!	!	!	!	!LO:SIC:o=-cu(n)-	!	!	!	!	!	!	!	!	!
4B\	.	2r	2r	.	4B\	-cun-	2r	.	2r	.	2r	.	.	.	.
4c#\	.	.	.	.	4c#\	-dum	.	.	.	.	.	.	.	.	.
!	!	!LO:LB:g=original	!LO:LB:g=original	!	!	!	!	!	!	!	!	!	!	!	!
=28	=28	=28	=28	=28	=28	=28	=28	=28	=28	=28	=28	=28	=28	=28	=28
4d\	.	4r	4r	1ryy	4d\	or-	4r	.	4r	.	4r	.	.	.	1ryy
!	!	!	!	!	!	!	!	!LO:SIC:o=Se-	!	!LO:SIC:o=Se-	!	!LO:SIC:o=Se-	!	!	!
4D\	3	4a/	4ff#\	.	4D/	.	4F#/	se-	4a\	se-	4ff#\	se-	.	.	.
4E\	3	4g/	4ee\	.	4E\	.	4G/	-cun-	4g\	-cun-	4ee\	-cun-	.	.	.
!	!	!	!	!	!	!	!	!LO:SIC:o=-du(m)	!	!	!LO:SIC:v:o=4ee\	!	!	!	!
4F#\	3	4a/	4dd\	.	4F#\	.	4A/	-dum	4f#\	-dum	4dd	-dum	.	.	.
!	!	!	!	!	!LO:LB:g=original	!	!	!	!	!	!	!	!	!	!
=29	=29	=29	=29	=29	=29	=29	=29	=29	=29	=29	=29	=29	=29	=29	=29
4G\	.	4b\	4dd\	1ryy	4G\	.	2.B\	or-	2.d\	or-	4dd\	or-	.	.	1ryy
4B\	.	4b\	4dd\	.	4B\	.	.	.	.	.	4dd\	.	.	.	.
4c#\	.	4cc#\	4ee\	.	4c#\	.	.	.	.	.	4ee\	.	.	.	.
!	!	!	!	!	!	!	!	!	!	!	!LO:SIC:o=(4ff#\	!	!	!	!
4d\	.	4dd\	4ff#\	.	4d\	.	4B\	-di-	4d\	-di-	4ff#	.	.	.	.
=30	=30	=30	=30	=30	=30	=30	=30	=30	=30	=30	=30	=30	=30	=30	=30
!	!	!	!	!	!	!	!	!	!	!	!LO:SIC:o=2gg\)	!	!	!	!
4e\	-3	2ee\	2gg\	1ryy	4e\	.	4B\	-nem	4d\	-nem	2gg	.	00r	00r	1ryy
!	!	!	!	!	!LO:SIC:o=(4E\	!	!	!	!	!	!	!	!	!	!
4E\	.	.	.	.	4E	.	2B\	or-	(4b\	or-	.	.	.	.	.
!	!	!	!	!	!LO:SIC:o=4F#\)	!	!	!	!	!	!	!	!	!	!
4F#\	3	2dd\	2ff#\	.	4F#	.	.	.	4a\)	.	2ff#\	-di-	.	.	.
!	!	!	!	!	!	!	!	!	!LO:SIC:v:o=4g\	!	!	!	!	!	!
4G#X\	3	.	.	.	4G#X\	-di-	4B\	-di-	4g#	-di-	.	.	.	.	.
=31	=31	=31	=31	=31	=31	=31	=31	=31	=31	=31	=31	=31	=31	=31	=31
!	!	!	!	!	!	!	!	!	!	!	!	!LO:SIC:o=-ne(m)	!	!	!
4A\	.	4cc#\	4ee\	1ryy	4A\	-nem	4c#\	-nem	4e\	-nem	4ee,\	-nem	.	.	1ryy
!	!	!	!	!	!	!LO:SIC:o=Se-	!	!LO:SIC:o=Se-	!	!	!	!LO:SIC:o=Se-	!	!	!
4A\	.	4ee\	4aa\	.	4A\	se-	4c#\	se-	4a\	se-	4ee\	se-	.	.	.
!	!	!	!	!	!	!	!	!LO:SIC:o=-cu(n)-	!	!LO:SIC:o=-cu(n)-	!	!	!	!	!
4B\	.	4ee\	4aa\	.	4B\	-cun-	4c#\	-cun-	4a\	-cun-	4ee\	-cun-	.	.	.
!	!	!	!	!	!	!LO:SIC:o=-du(m)	!	!	!	!	!	!	!	!	!
4c#\	.	4ee\	4aa\	.	4c#\	-dum	4c#\	-dum	4a\	-dum	4ee\	-dum	.	.	.
=32	=32	=32	=32	=32	=32	=32	=32	=32	=32	=32	=32	=32	=32	=32	=32
4d\	3	4dd\	4ff#\	1ryy	4d\	or-	4d\	or-	1a	or-	4ff#\	or-	.	.	1ryy
!	!	!	!	!	!LO:SIC:o=(4c#\	!	!	!	!	!	!	!	!	!	!
4c#\	3	4ee\	4ee\	.	4c#	.	4e\	.	.	.	4ee\	.	.	.	.
4B\	3	4ff#\	4dd\	.	4B\	.	4f#\	.	.	.	4dd\	.	.	.	.
!	!	!	!	!	!LO:SIC:o=4A\)	!	!	!	!	!	!	!	!	!	!
4A\	3	4ee\	4cc#\	.	4A	.	4d\	.	.	.	4cc#\	.	.	.	.
*	*	*	*	*	*	*	*	*	*custos:f	*	*	*	*	*	*
!	!	!	!	!	!	!	!	!	!LO:LB:g=original	!	!LO:LB:g=original	!	!	!	!
=33	=33	=33	=33	=33	=33	=33	=33	=33	=33	=33	=33	=33	=33	=33	=33
!	!	!	!LO:TX:t=P:problem=brak taktu	!	!	!	!	!	!	!	!	!	!	!	!
4B\	.	1dd	1ryy	1ryy	4B\	.	[1d	.	(1f#	.	4dd\	.	.	.	1ryy
4A\	.	.	.	.	4A\	.	.	.	.	.	4cc#\	.	.	.	.
4G\	.	.	.	.	4G\	.	.	.	.	.	4b\	.	.	.	.
4F#\	.	.	.	.	(4F#\	.	.	.	.	.	(4a\	.	.	.	.
=34	=34	=34	=34	=34	=34	=34	=34	=34	=34	=34	=34	=34	=34	=34	=34
4G\	.	4b\	4b\	1ryy	4G\)	.	4d\]	.	4g\)	.	4b\)	.	00r	00r	1ryy
4G\	.	4cc#\	4cc#\	.	4G\	-di-	4e\	-di-	4g\	-di-	4cc#\	-di-	.	.	.
!	!	!	!	!	!	!	!	!LO:SIC:o=-ne(m)	!	!	!	!LO:SIC:o=-ne(m)	!	!	!
4F#\	.	4dd\	4dd\	.	4F#\	-nem	4f#\	-nem	4a\	-nem	4dd,\	-nem	.	.	.
!	!	!	!LO:SIC:v:o=4ee\	!	!LO:TX:t=P:problem=3 skreślone takty	!	!	!	!	!	!	!	!	!	!
4G\	.	4dd\	4ff#	.	4G\	Mel-	4d\	Mel-	4a\	Mel-	4ff#\	Mel-	.	.	.
*	*	*	*	*	*custos:A	*	*	*	*	*	*	*	*	*	*
!LO:LB:g=original	!	!	!	!	!LO:LB:g=original	!	!	!	!	!	!	!	!	!	!
=35	=35	=35	=35	=35	=35	=35	=35	=35	=35	=35	=35	=35	=35	=35	=35
2A\	.	2.cc#\	2.ee\	1ryy	2A\	-chi-	2.c#\	-chi-	2.a\	-chi-	2.ee\	-chi-	.	.	1ryy
2AA/	.	.	.	.	2AA/	-se-	.	.	.	.	.	.	.	.	.
.	.	4cc#\	4ee\	.	.	.	4c#\	-se-	4a\	-se-	4ee\	-se-	.	.	.
!	!	!	!	!	!	!	!LO:LB:g=original	!	!	!	!	!	!	!	!
=36	=36	=36	=36	=36	=36	=36	=36	=36	=36	=36	=36	=36	=36	=36	=36
4D\	.	4dd\	4ff#\	1ryy	4D/	-dech	4d\	-dech	4a,\	-dech	4ff#,\	-dech	.	.	1ryy
!	!	!	!	!	!	!LO:SIC:o=Se-	!	!LO:SIC:o=Se-	!	!LO:SIC:o=Se-	!	!LO:SIC:o=Se-	!	!	!
4D\	.	4a/	4dd\	.	4D/	se-	4A\	se-	4f#\	se-	4dd\	se-	.	.	.
!	!	!	!	!	!	!	!	!	!	!LO:SIC:o=-cu(n)-	!	!	!	!	!
4E\	7	4a/	4dd\	.	4E\	-cun-	4A\	-cun-	4a\	-cun-	4dd\	-cun-	.	.	.
!	!	!	!	!	!	!	!	!LO:SIC:o=-du(m)	!	!LO:SIC:o=-du(m)	!	!LO:SIC:o=-du(m)	!	!	!
4F#\	6	4a/	4dd\	.	4F#\	-dum	4A\	-dum	4a\	-dum	4dd\	-dum	.	.	.
=37	=37	=37	=37	=37	=37	=37	=37	=37	=37	=37	=37	=37	=37	=37	=37
4G\	.	2b/	4dd\	1ryy	4G\	or-	4G/	or-	4b\	or-	4dd\	or-	.	.	1ryy
4G\	.	.	4dd\	.	4G\	-di-	4G/	-di-	4b\	-di-	4dd\	-di-	.	.	.
!	!	!	!	!	!	!	!	!	!	!	!	!LO:SIC:o=-ne(m)	!	!	!
4F#\	6	2a/	2dd\	.	4F#\	-nem	4d\	-nem	4a\	-nem	4dd,\	-nem	.	.	.
4D\	.	.	.	.	4D\	Mel-	4d\	Mel-	4a\	Mel-	4dd\	Mel-	.	.	.
=38	=38	=38	=38	=38	=38	=38	=38	=38	=38	=38	=38	=38	=38	=38	=38
!	!	!	!	!	!	!	!	!	!	!LO:SIC:v:o=-ci-	!	!	!	!	!
2.G\	.	1b	2.dd\	1ryy	2.G\	-chi-	2.B\	-chi-	2.g\	-chi-	2.dd\	-chi-	0r	0r	1ryy
!	!	!	!	!	!	!	!	!LO:SIC:o=-sed-	!	!	!	!	!	!	!
4G\	.	.	4dd\	.	4G\	-se-	4B\	-se-	4g\	-se-	4dd\	-se-	.	.	.
=39	=39	=39	=39	=39	=39	=39	=39	=39	=39	=39	=39	=39	=39	=39	=39
!	!	!	!	!	!	!	!	!LO:SIC:o=-ech.	!LO:TX:b:i:mod= :t=volti Subito	!	!	!LO:SIC:o=-dech	!	!	!
1D	.	1a	1dd	1ryy	1D	-dech.	1A	-dech.	1f#	-dech.	1dd	-dech.	.	.	1ryy
==	==	==	==	==	==	==	==	==	==	==	==	==	==	==	==
*-	*-	*-	*-	*-	*-	*-	*-	*-	*-	*-	*-	*-	*-	*-	*-
!!!system-decoration: s1[(g1)][g2][(g3)]<s11>
!!!RDF**kern: < = below
!!!filter-modern: shed -e "s/^(\d+[\/\\]right)/$1yy/I; s/^(\d+[\/\\]left)/$1yy/I" | shed -e "s/TX(.*):t=P:/tx$1:t=P:/LG" | shed -k -e "s/([^a-gA-Gn#X-])[<>]/$1/g" | shed -k -e "s/[,]/$1/g" | shed -e "s/^custos:/Xcustos:/I" | sic -sq | modori -m | autostem -r | tie -s | humtr -p | shed -e "s/yy//"
!!!ENC: Mateusz Solarz
!!!END: 2020-07-28
!!!EED: Marta Lawrence
!!!EEV: 2022-03-04
!!!ENC-modern: Andrzej Kubiczek
!!!END-modern: 2023-07-19
